!!!OTL: Der Maedchenmoerder (Halewijn - Ulinger).
!!!OTL-incipit: Es ritt ein Reiter wohl durch das Ried,
!!!ARE: Europa, Mitteleuropa, Deutschland (BRD), Wuerttemberg
!!!YOR: 2, S. 112
!!    1855 aufgezeichnet (vor)
!!!SCT: Q0041V
!!!TXL: @@DE
!!!YEM: Copyright 1995, estate of Helmut Schaffrath.
**kern	**text
*ICvox	*
*M6/8	*
*k[f#]	*
*G:	*
!LO:TX:a:t= Zu c. 46 Württemberg, vor 1855	!
{8d	Es
=1	=1
4d	ritt
8g	ein
8g	Reiter
8a	.
8b	wohl
=2	=2
4b	durch
8ee	das
4dd}	Ried,
{8b	fing
=3	=3
8bL	an
8aJ	.
8a	ʒu
8g	ſingen
8f#	.
8ee	ein
=4	=4
4dd	ſchönes
8cc	.
4b}	Lied,
{8dd	ein
=5	=5
8cc	Lied-
8b	-chen
8b	von
8b	drei-
8cc	-er-
8ee	-lei
=6	=6
(4dd	Stim-
8cc)	.
4a}	-men,
{8g	daß
=7	=7
8f#	es
8a	aus
8a	dem
8a	Wal-
8cc	-de
8ee	tut
=8	=8
(4.dd	klin-
4.cc)	.
=9	=9
4b	-gen.
8r	.
4r}	.
==	==
!!!AGN: Ballade, Verfuehrung, Mord, Mordversuch bzw. Rache
!!!ONB: ESAC (Essen Associative Code) Database: BALLADE
!!!AMT: compound duple
!!!AIN: vox
!!!EED: Helmut Schaffrath
!!!EEV: 1.0
!!!source: Deutsche Volkslieder mit ihren Melodien. Herausgegeben vom Deutschen Volksliedarchiv. Zweiter Band Balladen. Berlin 1939.
!!!page: 112
!!!ENC: Anna Maria Matuszewska
!!!EEV: 2025/02/17
*-	*-
